X: 24388
T: Lovely Lough Sheelin
R: strathspey
M: 4/4
K: Dmajor
|:A>F|D2 F>A d>AF>D|(3EGE =c>G E>A (3GFE|D2 (3FGA d2 (3FGA|f>de>c (3ded:|
(3ABc|d2 (3agf d>ef>a|g>be>d d>Ac>A|d>fa>f d2 (3agf|g>b (3edc d2 A>g|
(3fdf a>f d2 (3agf|g>be>d c>Ac>g|(3fga e>c d2 (3efg|(3agf (3edc d2||

